svg/show.svg

<?xml version="1.0" encoding="UTF-8"?>
<svg xmlns="http://www.w3.org/2000/svg" xmlns:xlink="http://www.w3.org/1999/xlink" width="32" height="32" viewBox="0 0 32 32">
<path fill-rule="evenodd" fill="rgb(0%, 0%, 0%)" fill-opacity="1" d="M 16 9.675781 C 21.613281 9.675781 26.660156 12.121094 30.128906 16 C 26.539062 20.027344 21.398438 22.328125 16 22.324219 C 10.601562 22.328125 5.460938 20.027344 1.871094 16 C 5.460938 11.972656 10.601562 9.671875 16 9.675781 M 16 11.09375 C 17.300781 11.09375 18.546875 11.609375 19.464844 12.53125 C 20.386719 13.449219 20.90625 14.699219 20.90625 16 C 20.910156 17.300781 20.390625 18.546875 19.46875 19.464844 C 18.550781 20.386719 17.300781 20.90625 16 20.90625 C 14.699219 20.910156 13.453125 20.390625 12.535156 19.46875 C 11.613281 18.550781 11.09375 17.300781 11.09375 16 C 11.09375 14.648438 11.640625 13.417969 12.53125 12.535156 C 13.449219 11.613281 14.699219 11.09375 16 11.09375 M 18.765625 13.234375 C 17.238281 11.710938 14.765625 11.710938 13.238281 13.234375 C 12.503906 13.96875 12.09375 14.960938 12.09375 16 C 12.09375 17.078125 12.53125 18.058594 13.234375 18.757812 C 14.761719 20.289062 17.238281 20.289062 18.765625 18.761719 C 19.496094 18.027344 19.90625 17.035156 19.90625 16 C 19.90625 14.964844 19.496094 13.96875 18.765625 13.234375 "/>
</svg>

<svg role="img" viewBox="0 0 32 32" height="32" width="32" xmlns="http://www.w3.org/2000/svg"><path d="M16 9.676c5.613 0 10.66 2.445 14.129 6.324A18.906 18.906 0 0 1 16 22.324 18.906 18.906 0 0 1 1.871 16 18.906 18.906 0 0 1 16 9.676m0 1.418c1.3 0 2.547.515 3.465 1.437A4.899 4.899 0 0 1 20.906 16a4.87 4.87 0 0 1-1.437 3.465A4.899 4.899 0 0 1 16 20.906a4.87 4.87 0 0 1-3.465-1.437A4.899 4.899 0 0 1 11.094 16c0-1.352.547-2.582 1.437-3.465A4.899 4.899 0 0 1 16 11.094m2.766 2.14a3.914 3.914 0 0 0-5.528 0A3.905 3.905 0 0 0 12.094 16a3.908 3.908 0 0 0 6.672 2.762 3.915 3.915 0 0 0 0-5.528"/></svg>
